X: 4
T: Robin Anderson (Orkney)
C: Donald C. Ridley
T: Dance: Crossing the Brook
N: For Ruth and Peter Thornton and the Liskeard Scottish Country Dancers.
N: Crossing the Brook is the title of a painting by Turner which shows the upper reaches of the River Tamar.
B: Social Dances 2002
R: reel
Z: 2014 John Chambers <jc:trillian.mit.edu>
M: 4/4
L: 1/8
K: A
cB |\
"A"A2a2 "E7"edcB | "A"A2E2 CA,CE | "D"DCDF "A/C#"ECEA | "Bm"dcBA "E7"BdcB |
"A"A2a2 "E7/G#"edcB | "F#m"A2E2 "A7/E"CA,CE | "D"DCDF "A/C#"ECEA | "E7"cBAG "A"A2 :|
|: BA |\
"E"GBE2 "E7/B"EGBG | "A"AcE2 EAce | "B7"^dfB2 Bdfa | gfe^d "E7"e=dcB |
"A"A2a2 "E7/G#"edcB | "A"A2E2 "A7"CA,CE | "D"DCDF "A/C#"ECEA | "E7"cBAG "A"A2 :|

%%sep 1 1 500
%%sep 1 1 500
